X:1
T:Title
%%score { ( 1 3 ) | ( 2 4 ) }
L:1/8
M:6/8
K:Db
V:1 treble nm="Grand Piano"
V:3 treble 
V:2 bass 
V:4 bass 
V:1
 z3 z2[Q:1/4=84] F | z3 .[_Fc]3 | [FA]6 | [Ge]3 [A,EA]2 [CEG] |[M:5/8] [CEF]-[CEF]- [CEF]3 | %5
[M:1/8] [CEF] |[M:3/4] .[B,DF]2 [B,DF] [CEc]2 [CEB] | [CE=A]6 | z2 z[K:bass] .E3 | %9
[M:5/8] [F,D]-[F,D]- [F,D]3 |] %10
V:2
 z3 z2 [D,A,D] | .A,3 z3 | [D,D]6 | [C,A,]3 C,2 A,, |[M:5/8] =A,,-A,,- A,,3 |[M:1/8] =A,, | %6
[M:3/4] z _F B,, G,2 G, | F,6 | z2 z .A,3 |[M:5/8] D,-D,- D,3 |] %10
V:3
 x6 | F_F=F z B,[_FB] | x6 | x6 |[M:5/8] x5 |[M:1/8] x |[M:3/4] x6 | x6 | %8
 [B,DB]3[K:bass] D z [G,CF] |[M:5/8] x5 |] %10
V:4
 x6 | [D,D]-[D,=G,D][D,A,] .[D,G,]2 [D,D] | x6 | x6 |[M:5/8] x5 |[M:1/8] x |[M:3/4] B,,2 z2 z2 | %7
 x6 | G,4 CA,, |[M:5/8] x5 |] %10

